X: 1
T:What Shall We Do With the Baby-O Jig
M:6/8
L:1/8
K:G
%
[| "G"D>GG GFG | "D"A2A "G"B3  | "G"d2B    B2G | "D"A2G "G"G3 \
|  "G"D2G  G2G | "D"A2A "G"B3  | "G"d2d    d2B | "D"A2G "G"G3 ||
|| "G"B2d  d2d | "C"e2d "G"g2d | "G"B2d    d2B | "D"A2G "G"G3 \
|  "G"B2d  d2d | "C"e2d "G"d3  | "C"g2e "G"d2B | "D"A2G "G"G3 |]
